public/assets/images/magic.svg

<svg xmlns:xlink="http://www.w3.org/1999/xlink" xmlns="http://www.w3.org/2000/svg" width="30" viewBox="0 0 30 29" fill="none" class="text-icon__icon" height="29" ><path d="M12.5976 4.71851L13.2205 3.02797C13.2649 2.89451 13.3984 2.80553 13.5764 2.80553C13.7098 2.80553 13.8433 2.89451 13.8878 3.02797L14.5106 4.71851L16.2011 5.34134C16.3346 5.38582 16.4236 5.51929 16.4236 5.65275C16.4236 5.8307 16.3346 5.96417 16.2011 6.00865L14.5106 6.63148L13.8878 8.27753C13.8433 8.411 13.7098 8.49997 13.5764 8.49997C13.3984 8.49997 13.2649 8.411 13.2205 8.27753L12.5976 6.63148L10.9516 6.00865C10.8181 5.96417 10.7291 5.8307 10.7291 5.65275C10.7291 5.51929 10.8181 5.38582 10.9516 5.34134L12.5976 4.71851ZM22.6964 4.94095L17.8027 9.83461L19.3598 11.3917L24.2534 6.49802L22.6964 4.94095ZM5.7465 21.9353L7.25909 23.4479L17.8472 12.9043L16.2901 11.3472L5.7465 21.9353ZM21.1838 3.47285C22.0291 2.62758 23.3637 2.62758 24.209 3.47285L25.7215 4.98543C26.5668 5.8307 26.5668 7.16534 25.7215 8.01061L8.77167 24.9605C7.92641 25.8057 6.59177 25.8057 5.7465 24.9605L4.23391 23.4479C3.38865 22.6026 3.38865 21.268 4.23391 20.4227L21.1838 3.47285ZM2.49889 8.0551L5.0347 7.07636L5.96894 4.58504C6.01343 4.3626 6.23587 4.22914 6.45831 4.22914C6.63626 4.22914 6.8587 4.3626 6.90318 4.58504L7.88192 7.07636L10.3732 8.0551C10.5957 8.09958 10.7291 8.32202 10.7291 8.49997C10.7291 8.72241 10.5957 8.94485 10.3732 8.98934L7.88192 9.92358L6.90318 12.4594C6.8587 12.6373 6.63626 12.7708 6.45831 12.7708C6.23587 12.7708 6.01343 12.6373 5.96894 12.4594L5.0347 9.92358L2.49889 8.98934C2.32094 8.94485 2.18747 8.72241 2.18747 8.49997C2.18747 8.32202 2.32094 8.09958 2.49889 8.0551ZM18.1586 19.444L20.6944 18.4653L21.6287 15.9739C21.6731 15.7515 21.8956 15.618 22.118 15.618C22.296 15.618 22.5184 15.7515 22.5629 15.9739L23.5416 18.4653L26.033 19.444C26.2554 19.4885 26.3889 19.7109 26.3889 19.8889C26.3889 20.1113 26.2554 20.3337 26.033 20.3782L23.5416 21.3125L22.5629 23.8483C22.5184 24.0262 22.296 24.1597 22.118 24.1597C21.8956 24.1597 21.6731 24.0262 21.6287 23.8483L20.6944 21.3125L18.1586 20.3782C17.9807 20.3337 17.8472 20.1113 17.8472 19.8889C17.8472 19.7109 17.9807 19.4885 18.1586 19.444Z" fill="#3D4148" class=""></path></svg>

<svg xmlns="http://www.w3.org/2000/svg" width="30" fill="none" class="text-icon__icon" height="29"><path d="m12.598 4.719.622-1.691c.045-.133.178-.222.356-.222.134 0 .267.089.312.222l.623 1.69 1.69.623a.335.335 0 0 1 .223.312c0 .178-.09.311-.223.356l-1.69.622-.623 1.647a.335.335 0 0 1-.312.222c-.178 0-.311-.089-.356-.222l-.622-1.647-1.646-.622c-.134-.045-.223-.178-.223-.356 0-.134.09-.267.223-.312l1.646-.622Zm10.098.222-4.893 4.894 1.557 1.557 4.893-4.894-1.557-1.557ZM5.746 21.935l1.513 1.513 10.588-10.544-1.557-1.557L5.747 21.935ZM21.184 3.473a2.121 2.121 0 0 1 3.025 0l1.512 1.512c.846.846.846 2.18 0 3.026L8.771 24.96a2.122 2.122 0 0 1-3.025 0l-1.512-1.513a2.122 2.122 0 0 1 0-3.025l16.95-16.95ZM2.499 8.055l2.536-.979.934-2.491c.044-.222.267-.356.49-.356.177 0 .4.134.444.356l.979 2.491 2.491.98c.223.044.356.266.356.444 0 .222-.133.445-.356.49l-2.491.934-.979 2.535c-.044.178-.267.312-.445.312-.222 0-.445-.134-.49-.312l-.933-2.535-2.536-.935c-.178-.044-.312-.267-.312-.489 0-.178.134-.4.312-.445Zm15.66 11.389 2.535-.979.935-2.491c.044-.223.267-.356.489-.356.178 0 .4.133.445.356l.979 2.491 2.491.979c.222.044.356.267.356.445 0 .222-.134.445-.356.49l-2.491.933-.98 2.536c-.044.178-.266.312-.444.312-.222 0-.445-.134-.49-.312l-.934-2.535-2.535-.935c-.178-.044-.312-.267-.312-.49 0-.177.134-.4.312-.444Z" fill="#3D4148"/></svg>
